app/images/vetores/materiais/presentation.svg

<?xml version="1.0" encoding="UTF-8" standalone="no"?>
<svg width="86px" height="87px" viewBox="0 0 86 87" version="1.1" xmlns="http://www.w3.org/2000/svg" xmlns:xlink="http://www.w3.org/1999/xlink" xmlns:sketch="http://www.bohemiancoding.com/sketch/ns">
    <!-- Generator: Sketch 3.5.2 (25235) - http://www.bohemiancoding.com/sketch -->
    <title>presentation</title>
    <desc>Created with Sketch.</desc>
    <defs></defs>
    <g id="Page-1" stroke="none" stroke-width="1" fill="none" fill-rule="evenodd" sketch:type="MSPage">
        <g id="Plataforma" sketch:type="MSArtboardGroup" transform="translate(-814.000000, -2759.000000)">
            <g id="conteudos" sketch:type="MSLayerGroup" transform="translate(0.000000, 2460.000000)">
                <g id="content" transform="translate(252.000000, 298.000000)" sketch:type="MSShapeGroup">
                    <g id="Group-9" transform="translate(542.000000, 1.000000)">
                        <g id="presentation" transform="translate(20.000000, 0.000000)">
                            <g id="Page-1">
                                <g>
                                    <g id="presentation">
                                        <path d="M57.9397534,0 L15.0214176,0 C12.8125539,0 10.729584,2.08928571 10.729584,4.19930876 L10.729584,82.5864056 C10.729584,84.6964286 12.8125539,86.7857143 15.0214176,86.7857143 L80.8295327,86.7857143 C83.0383964,86.7857143 85.1213663,84.6964286 85.1213663,82.5864056 L85.1213663,26.5956221 L57.9397534,26.5956221 L57.9397534,0 L57.9397534,0 L57.9397534,0 L57.9397534,0 Z" id="Fill-9" fill="#EF3D25"></path>
                                        <path d="M40.7724192,16.0714286 L40.7724192,55.2649768 L0.715305599,55.2649768 L0.715305599,16.0714286 L40.7724192,16.0714286 L40.7724192,16.0714286 L40.7724192,16.0714286 Z M85.1213663,26.5956221 L57.9397534,26.5956221 L57.9397534,-1.20792265e-14 L85.1213663,26.5956221 L85.1213663,26.5956221 L85.1213663,26.5956221 Z" id="Fill-10" fill="#F1614B"></path>
                                        <path d="M74.8309339,61.6458526 L74.8309339,60.1341014 C74.8309339,59.3782258 72.8641313,58.7903226 71.5201494,58.7903226 L23.1531956,58.7903226 C21.7928238,58.7903226 20.7438624,59.3782258 20.7438624,60.1341014 L20.7438624,61.6458526 C20.7438624,62.4017281 21.7928238,62.9896314 23.1531956,62.9896314 L74.3556232,62.9896314 C75.699605,62.9896314 74.8309339,62.4017281 74.8309339,61.6458526 L74.8309339,61.6458526 L74.8309339,61.6458526 L74.8309339,61.6458526 L74.8309339,61.6458526 Z M74.8309339,70.04447 L74.8309339,68.5327188 C74.8309339,67.7768434 72.8641313,67.1889401 71.5201494,67.1889401 L23.1531956,67.1889401 C21.7928238,67.1889401 20.7438624,67.7768434 20.7438624,68.5327188 L20.7438624,70.04447 C20.7438624,70.8003456 21.7928238,71.3882488 23.1531956,71.3882488 L74.3556232,71.3882488 C75.699605,71.3882488 74.8309339,70.8003456 74.8309339,70.04447 L74.8309339,70.04447 L74.8309339,70.04447 Z M74.9543893,54.6470045 L74.9543893,51.7354838 C74.9543893,50.9796084 73.5761219,50.3917051 72.8288686,50.3917051 L46.3927032,50.3917051 C45.6454498,50.3917051 45.0642527,50.9796084 45.0642527,51.7354838 L45.0642527,53.247235 C45.0642527,54.0031106 45.6454498,54.5910138 46.3927032,54.5910138 L74.6886993,54.5910138 C75.4359527,54.5910138 74.9543893,54.0031106 74.9543893,53.247235 L74.9543893,54.6470045 L74.9543893,54.6470045 L74.9543893,54.6470045 Z M74.9543893,44.8486176 L74.9543893,43.3368664 C74.9543893,42.5809908 73.5761219,41.9930876 72.8288686,41.9930876 L46.3927032,41.9930876 C45.6454498,41.9930876 45.0642527,42.5809908 45.0642527,43.3368664 L45.0642527,44.8486176 C45.0642527,45.604493 45.6454498,46.1923963 46.3927032,46.1923963 L74.6886993,46.1923963 C75.4359527,46.1923963 74.9543893,45.604493 74.9543893,44.8486176 L74.9543893,44.8486176 L74.9543893,44.8486176 Z M10.729584,54.5910138 L0.715305599,54.5910138 L10.729584,64.3894009 L10.729584,54.5910138 L10.729584,54.5910138 L10.729584,54.5910138 Z" id="Fill-11" fill="#B2200D"></path>
                                        <path d="M35.0876257,40.6125428 C35.034168,40.1853508 34.8019118,39.9410211 34.5077593,39.7474141 C33.9503829,39.3804653 33.325807,39.2393584 32.6744057,39.1965364 C31.3120291,39.1069029 29.9561555,39.2168019 28.600824,39.3386704 C28.2421817,39.3709449 27.8838101,39.4067747 27.4955552,39.4438289 C27.531013,39.4847151 27.5454515,39.5118146 27.5678256,39.5256409 C28.8685769,40.329697 30.215818,41.0269749 31.7113935,41.3748829 C32.415672,41.5387438 33.1254859,41.6030953 33.837274,41.4211812 C34.3120446,41.2998261 34.7140028,41.0488203 35.0707484,40.6885871 C35.0383487,40.7803934 35.0144263,40.8765452 34.9722331,40.9634135 C34.5213463,41.8917479 33.7737906,42.3971174 32.7833725,42.5519716 C31.5457948,42.7454204 30.3751459,42.4609552 29.2298901,42.0201346 C27.8290364,41.4809106 26.5447754,40.715726 25.3035592,39.8718898 C25.1527861,39.7693781 25.0159484,39.7406589 24.8368013,39.7675213 C21.7848765,40.225526 18.8383959,41.1026638 15.9184313,42.0879227 C15.7594131,42.1415687 15.6658913,42.2315974 15.5893241,42.3827381 C14.8512137,43.83967 14.038278,45.2505802 13.0642339,46.5588207 C12.3712973,47.4895252 11.6187096,48.3629101 10.6761748,49.0440311 C10.1609917,49.4163129 9.61054431,49.7237694 8.97412343,49.7996558 C8.01869855,49.9135841 7.23007234,49.5815564 6.66847663,48.7765127 C6.2852538,48.2271758 6.35605325,47.6444583 6.65941862,47.0809001 C7.00803528,46.4332388 7.53127002,45.9440262 8.08938181,45.4915522 C9.22612151,44.5700518 10.4880859,43.8551555 11.7736631,43.1802366 C11.9798681,43.0719572 12.1888213,42.9690899 12.3968842,42.8645239 C12.4072196,42.8593093 12.4213872,42.8619561 12.481619,42.8569787 C12.2579949,43.1440907 12.0787705,43.4263439 11.7986694,43.6148945 C10.8706507,44.2396834 9.98250274,44.9154318 9.20456037,45.7305883 C8.53345584,46.4337918 7.94337006,47.1965667 7.6509981,48.1504993 C7.56254722,48.4391915 7.53227643,48.7464506 7.47537369,49.0452162 C7.50041861,49.0630719 7.5254636,49.0809274 7.55050851,49.0987435 C7.80513883,48.9643128 8.07200133,48.8491994 8.31211561,48.6916986 C9.00176188,48.2392244 9.56869948,47.6438263 10.1086567,47.0217632 C11.3744146,45.5634092 12.450187,43.9628423 13.4547341,42.3120661 C15.4132739,39.0934321 17.1375445,35.7532851 18.483005,32.2146323 C18.6847197,31.6841386 18.7086807,31.2120313 18.5400627,30.6649855 C18.0392794,29.0404398 17.6391019,27.38678 17.3918264,25.7000162 C17.2554532,24.7696277 17.1622024,23.8365529 17.2815821,22.8907184 C17.4339423,21.6839232 18.2939873,21.1476224 19.1207421,20.9392804 C19.7378083,20.7837943 20.2034047,21.0305732 20.5822147,21.5048139 C20.9707795,21.9913006 21.1178365,22.5763488 21.2120938,23.1783835 C21.4083503,24.4319905 21.2183647,25.6578658 20.9199154,26.8688485 C20.640511,28.0026014 20.3294812,29.1283354 20.027548,30.2562024 C19.988529,30.4018917 19.9891483,30.5297253 20.0461673,30.6731628 C21.2584289,33.7235511 23.1188403,36.2531239 25.7731425,38.1566835 C26.1055401,38.3950482 26.423344,38.4469954 26.8157796,38.3873054 C28.2308011,38.1721688 29.6481837,37.9637084 31.0817856,37.9268516 C31.9857657,37.9035841 32.8886233,37.9173708 33.7644618,38.1921576 C33.9422151,38.2478972 34.1176847,38.3183717 34.2845222,38.4020797 C35.0777548,38.8001968 35.3731462,39.4452511 35.171354,40.3228233 C35.1526188,40.4043588 35.125135,40.48384 35.0876257,40.6125428 L35.0876257,40.6125428 L35.0876257,40.6125428 L35.0876257,40.6125428 Z M24.1455379,38.4240205 C23.0160652,37.4981279 22.0430894,36.5167517 21.1889273,35.439247 C20.3368422,34.3644647 19.6156516,33.2191295 18.9443941,32.0192307 C17.9287333,35.0603317 16.7489885,38.0156186 15.2757485,40.9203297 C18.1659369,39.8684388 21.0461218,38.9125229 24.1455379,38.4240205 L24.1455379,38.4240205 L24.1455379,38.4240205 L24.1455379,38.4240205 Z M20.4442265,20.8928571 C20.3643293,20.9872429 20.2769631,21.0750077 20.2105104,21.1715066 C19.8376419,21.7129924 19.748963,22.3066369 19.7201275,22.9054585 C19.6616872,24.1191968 19.8798313,25.3129309 20.1950743,26.4974376 C20.2905886,26.856315 20.407922,27.2117057 20.5152965,27.5686814 C20.9047781,26.6682124 21.2479963,25.7713711 21.5683996,24.8695992 C21.801663,24.2131952 21.9629511,23.5449929 21.921622,22.8588996 C21.8706507,22.0129843 21.4380746,21.3348504 20.4442265,20.8928571 L20.4442265,20.8928571 L20.4442265,20.8928571 L20.4442265,20.8928571 Z" id="Imported-Layers" fill="#FFFFFF"></path>
                                    </g>
                                </g>
                            </g>
                        </g>
                    </g>
                </g>
            </g>
        </g>
    </g>
</svg>

<svg width="86" height="87" viewBox="0 0 86 87" xmlns="http://www.w3.org/2000/svg"><title>presentation</title><g fill="none" fill-rule="evenodd"><path d="M57.94 0H15.02c-2.208 0-4.291 2.09-4.291 4.2v78.386c0 2.11 2.083 4.2 4.291 4.2h65.81c2.208 0 4.291-2.09 4.291-4.2v-55.99H57.94V0z" fill="#EF3D25"/><path d="M40.772 16.071v39.194H.715V16.071h40.057zm44.35 10.525H57.94V0l27.18 26.596z" fill="#F1614B"/><path d="M74.83 61.646v-1.512c0-.756-1.966-1.344-3.31-1.344H23.153c-1.36 0-2.41.588-2.41 1.344v1.512c0 .756 1.05 1.344 2.41 1.344h51.203c1.344 0 .475-.588.475-1.344zm0 8.398v-1.511c0-.756-1.966-1.344-3.31-1.344H23.153c-1.36 0-2.41.588-2.41 1.344v1.511c0 .756 1.05 1.344 2.41 1.344h51.203c1.344 0 .475-.588.475-1.344zm.124-15.397v-2.912c0-.755-1.378-1.343-2.125-1.343H46.393a1.32 1.32 0 0 0-1.329 1.343v1.512a1.32 1.32 0 0 0 1.329 1.344h28.296c.747 0 .265-.588.265-1.344v1.4zm0-9.798v-1.512c0-.756-1.378-1.344-2.125-1.344H46.393a1.32 1.32 0 0 0-1.329 1.344v1.512a1.32 1.32 0 0 0 1.329 1.343h28.296c.747 0 .265-.588.265-1.343zM10.73 54.59H.715l10.015 9.798V54.59z" fill="#B2200D"/><path d="M35.088 40.613c-.054-.428-.286-.672-.58-.866-.558-.367-1.182-.508-1.834-.55-1.362-.09-2.718.02-4.073.142-.359.032-.717.068-1.105.105.035.04.05.068.072.082 1.3.804 2.648 1.501 4.143 1.849.705.164 1.414.228 2.126.046.475-.121.877-.372 1.234-.732-.033.091-.057.188-.099.274-.45.929-1.198 1.434-2.189 1.589-1.237.193-2.408-.091-3.553-.532-1.401-.54-2.685-1.304-3.926-2.148a.6.6 0 0 0-.467-.104c-3.052.458-5.999 1.335-8.919 2.32a.534.534 0 0 0-.329.295c-.738 1.457-1.55 2.868-2.525 4.176-.693.93-1.445 1.804-2.388 2.485-.515.372-1.065.68-1.702.756-.955.114-1.744-.218-2.306-1.023-.383-.55-.312-1.133-.009-1.696.349-.648.872-1.137 1.43-1.59 1.137-.92 2.4-1.636 3.685-2.31.206-.109.415-.212.623-.316.01-.006.024-.003.085-.008-.224.287-.403.57-.683.758-.928.625-1.816 1.3-2.594 2.116-.672.703-1.262 1.466-1.554 2.42-.088.288-.119.595-.176.894l.076.054c.254-.135.521-.25.761-.407.69-.453 1.257-1.048 1.797-1.67 1.265-1.459 2.341-3.06 3.346-4.71 1.958-3.219 3.683-6.559 5.028-10.097.202-.53.226-1.003.057-1.55a33.214 33.214 0 0 1-1.148-4.965c-.137-.93-.23-1.863-.11-2.81.152-1.206 1.012-1.742 1.839-1.95.617-.156 1.082.09 1.461.565.389.486.536 1.071.63 1.673.196 1.254.006 2.48-.292 3.69-.28 1.135-.59 2.26-.892 3.388a.623.623 0 0 0 .018.417c1.212 3.05 3.073 5.58 5.727 7.484.333.238.65.29 1.043.23 1.415-.215 2.832-.423 4.266-.46.904-.023 1.807-.01 2.682.265.178.056.354.126.52.21.794.398 1.09 1.043.887 1.92-.018.082-.046.162-.083.29zm-10.942-2.189a19.515 19.515 0 0 1-2.957-2.985c-.852-1.075-1.573-2.22-2.245-3.42-1.015 3.041-2.195 5.997-3.668 8.901 2.89-1.052 5.77-2.007 8.87-2.496zm-3.702-17.531c-.08.094-.167.182-.233.279-.373.541-.462 1.135-.49 1.733-.06 1.214.159 2.408.474 3.592.096.36.213.715.32 1.072.39-.9.733-1.798 1.053-2.7.234-.656.395-1.324.354-2.01-.051-.846-.484-1.524-1.478-1.966z" fill="#FFF"/></g></svg>
